symbols/web/create_new_folder/materialsymbolssharp/create_new_folder_wght700grad200fill1_24px.svg

<svg xmlns="http://www.w3.org/2000/svg" height="24" width="24"><path d="M13.725 16.825h2.625V14.4h2.4v-2.625h-2.4v-2.4H13.7v2.4h-2.4v2.65h2.425ZM.85 21.225v-18.9h8.525L12 4.95h11.15v16.275Z"/></svg>

<svg xmlns="http://www.w3.org/2000/svg" height="24" width="24"><path d="M13.725 16.825H16.35V14.4H18.75V11.775H16.35V9.375H13.7V11.775H11.3V14.425H13.725ZM0.85 21.225V2.325H9.375L12 4.95H23.15V21.225Z"/></svg>
